X:1
T:Ascension
T:D Major              Hezekiah Moors, 1809
T:Isaac Watts, 1719 (Psalm 47)                                         86. 86. (C. M.)
T:Treble-Tenor-Bass Transcribed from Province Harmony , 1809; Counter by B. C. Johnston, 2018.
%%score [ 1 2 3 4 ]
L:1/8
Q:1/4=110
M:2/4
K:D
V:1 treble nm="Tr." snm="Tr."
V:2 treble nm="C." snm="C."
V:3 treble-8 nm="T." snm="T."
V:4 bass nm="B." snm="B."
V:1
"_1. O    for     a       shout  of     sa – cred     joy  To God the sovereign King!  Let eve – ry     land   their    tongues  em – ploy,  And  hymns  of   tri – umph  sing.   Je – sus    our" A2 | %1
 FG AB | AG FE | FG A2 | A3 d | d3 A | A2 E2 | E3 D | FA Ad | cB c/d/e | dc c/d/e | d3 c | BF ED | %13
 EB A2 | A4 | z2 d2 | FG AB | %17
"_1. God  a–scends  on     high, His heav'nly guards around  At – tend him   ri – sing  through   the  sky,  With  trumpets'  joyful  sound,  With trum – pets'       joy – ful,  joyful  sound." A3 F/D/ | %18
 B2 e>d | (d c2) A | A2 A2 | A2 A2 | A3 z | z4 | z4 | z4 | z2 z F | GF FA | ^G2 E2 | E3 F | F2 B2 | %31
 AB Ag | f2 e2 | d4 |] %34
V:2
"_2. While angels shout and praise their King, Let mortals learn their strains; Let  all   the     earth   his         ho  –  nors     sing;  O'er  all    the     earth  he   reigns. Re –hearse  his" A2 | %1
 AG AG | FG FE | FG A2 | F3 A | B3 d | A2 ^G2 | A3 F | FA cd | cB AG | FE E/F/G | F3 A | BA GF | %13
 GB c2 | d4 | z2 d2 | cB AB | %17
"_2. praise with awe profound,  Let knowledge lead the song,  Nor mock him  with   a    so – lemn  sound  Up – on  a  thoughtless tongue, Up – on    a  thoughtless, thoughtless tongue." A3 A/F/ | %18
 B2 ^G2 | A3 A | d2 d2 | dc B2 | A3 z | z4 | z4 | z4 | z2 z A | BA FA | ^G2 G2 | A3 A | %30
 FG/A/ BA/G/ | AB AG | F2 A2 | A4 |] %34
V:3
"_3.  In   Is  –  rael   stood  his   an – cient throne, He loved that chosen race; But  now  he     calls   the         world   his     own, And  all     men  taste   his  grace.   Our  che–rished" d2 | %1
 AG FE | FG Ad | AG FE | F3 A | B3 d | F2 ^G2 | A3 F | Ad cd | ed e/f/g | fe e/f/g | f3 e | dA GF | %13
 Gg fe | d4 | z2 d2 | cB AG | %17
"_3.  country is the Lord's,  There Abraham's God is known;  While powers and princes, shields and swords, Submit  be – fore his throne, Sub – mit   be    –    fore,  be–fore his throne." F3 A | %18
 d2 ^g2 | a3 c | d2 d2 | dc ed | d3 A | GB AF | EG FE | FG Ad | (d c2) A | BA AF | E2 ^G2 | A3 A | %30
 de/f/ ef/g/ | ag fe | d2 c2 | d4 |] %34
V:4
 D,2 | D,2 D,2 | D,2 D,2 | D,2 A,,2 | D,3 D, | G,3 F, | D,2 E,2 | A,,3 D, | D,2 F,2 | E,2 A,2 | %10
 A,2 C2 | D3 A, | D,2 E,F, | G,2 A,2 | D,4 | z2 D2 | A,G, F,E, | %17
"________________________________________________________________\nEdited by B. C. Johnston, 2018\n   1. Grace eighth notes converted to normal eighth notes in measures 20 and 27. \n   2. Counter part written." D,3 F, | %18
 G,2 E,2 | A,3 A, | D,2 D,2 | A,,2 A,,2 | D,3 D, | E,2 F,2 | E,2 F,2 | F,E, D,2 | A,3 D, | %27
 D,2 D,2 | E,2 E,2 | A,,3 D, | D,2 E,2 | F,G, A,2 | D2 A,2 | D,4 |] %34

